!!!OTL: An den Schlaf.
!!!OTL-incipit: KOMM SUESSER SCHLAF
!!!ARE: Europa, Mitteleuropa, Deutschland
!!!SCT: F1055
!!!TXL: @@DE
!!!YEM: Copyright 1995, estate of Helmut Schaffrath.
**kern	**text
*ICvox	*
*clefG2	*
*M2/4	*
*k[b-e-]	*
*B-:	*
!LO:TX:a:t=Etwas langſam.	!
!LO:TX:a:t=P:only the highest voice encoded:problem	!
{8b-/	1._Komm,
=1	=1
8b-/L	ſü-
8aJ	.
8a/L	-ſer
8ccJ	.
=2	=2
4.b-/	Schlaf,
8dd/	er-
=3	=3
8ee-/L	-qui-
8ccJ	.
8b-/L	-cke
8aJ	.
=4	=4
4b-/	mich,
8r}	.
{8dd	mein
=5	=5
8dd/L	mü-
8ee-J	.
8dd/L	-des
8ccJ	.
=6	=6
8cc/L	Au-
8b-J	.
8aL	-ge
8b-J	.
=7	=7
8cc/L	ſeh-
8ddJ	.
8cc/L	-net
8b-J	.
=8	=8
4a	ſich,
8r}	.
{8a	die
=9	=9
(>8a	Ru-
4b-/)	.
8dd/	-he
=10	=10
(>8dd/	ʒu
4cc/)	.
8ee-/	ge-
=11	=11
4ee-qq	.
2dd/	-nie-
=12	=12
4cc/	-ßen,
8r}	.
{8cc/	komm,
=13	=13
8ff/L	ſanft
8ddJ	.
8b-/L	es
8a-J	.
=14	=14
8g/L	ʒu-
8ee-J	.
8dd/L	-ʒu-
8ccJ	.
=15	=15
(>4b-/	-ſchlie-
4a)	.
=16	=16
4b-/	-ßen.
8r}	.
==	==
!!!AGN: Trost - Lied
!!!ONB: ESAC (Essen Associative Code) Database: FINK
!!!AMT: simple duple
!!!AIN: vox
!!!EED: Helmut Schaffrath
!!!EEV: 1.0
!!!RDF**kern: > = above
!!!GTL: Trauer- Begraebniss- und Trostlieder
!!!URL-scan: https://www.digitale-sammlungen.de/en/view/bsb11144622?page=667
!!!ENC: Anna Maria Matuszewska
!!!EEV: 2024/08/09
*-	*-
